X: 701
M: 9/8
L: 1/8
K: G
V: 1
|:\
E2E C2C (E/F/G)E | DED TF2D (F/G/A)F :|
|:\
c2c e2c (e/f/g)e | ded Tf2d (f/g/a)f :|
|:\
gdB GAB gdB | gdB GAB gdg |\
ece ece ece | (a/g/f/e/d) Tf2d (f/g/a)f :|
V: 2 clef=bass middle=d
|:\
g3 g3 g3 | g3 g3 g3 |\
c3 c3 c3 | d3 d3 d3 :|\
|:\
g3 g3 g3 | g3 g3 g3 |
c3 c3 c3 | d3 d3 d3 :|\
|:\
g3 g3 g3 | g3 g3 g3 |\
c3 c3 c3 | d3 d3 d3 :|

